X:0307
T:Quick Step 26th Regt.
M:6/8
L:1/8
Q:3/8=88
I: || ||
Z:Jack Campin * www.campin.me.uk * 2009
K:G
e|d2G  BAG    |ABA c2e|d2c  B2A    |Ggd Bcd| \
  ede  gdB    |ABA c2e|dBG  cAF    |Ggd B2||
G|Ggd (B/c/d)B|AaA c2A|Ggd (B/c/d)B|Ggd Bcd|\
  ede  gdB    |ABA c2e|d2c  B2A    |Ggd B2|]

